!!!!SEGMENT: pl-stab--20b_gall-jan-karol--anielski-chor-pasterzom-oglasza-zbawienie.krn
!!!cenid: 18xx:4564
!!!COM: Gall, Jan Karol
!!!COM-rismID: pe50042628
!!!CDT: 1856-1912
!!!CNT: Polish
!!!OTL: Anielski chor pasterzom ogłasza zbawienie
!!!PDT:
!!!AGN:
!!!YEC: Copyright 2022 Narodowy Instytut Fryderyka Chopina (https://polishscores.org)
!!!YEM: License CC-BY-4.0 (https://creativecommons.org/licenses/by/4.0)
!!!SMS-siglum: PL-STAb
!!!SMS-shelfmark: 20b
!!!SMS-variant:
!!!SMS-altvar:
!!!SMS-shelfwork: W
!!!NIFC-rismSourceID: 301050689
!!!NIFC-rismChildID: 301050689
!!!NIFC-islandoraID: pl-stab:3146
!!!URL-pdf-islandora: https://repozytorium.nifc.pl/islandora/object/pl-stab:3146/datastream/PDF/view
!!!URL-scan: https://polish.musicsources.pl/pl/lokalizacje/galeria/rekopisy/4449/1 @EN{Scan on Polish Music Sources Website} @PL{Skany w portalu Dziedzictwo Muzyki Polskiej w otwartym dostępie}
!!!IIIF:
!!!ONB-nifc:
!!!AIN: 1 bass 1 cbass 1 clars 2 cor 1 flt 1 organ 1 soprn 1 tenor 1 viola 2 violn
!!!key: A
**kern	**kern	**dynam	**kern	**dynam	**kern	**dynam	**kern	**dynam	**kern	**kern	**text	**text	**text	**text	**kern	**text	**text	**text	**text	**kern	**text	**text	**text	**text	**kern	**kern	**dynam	**kern	**kern
*part12	*part12	*part12	*part11	*part11	*part10	*part10	*part9	*part9	*part8	*part7	*part7	*part7	*part7	*part7	*part6	*part6	*part6	*part6	*part6	*part5	*part5	*part5	*part5	*part5	*part4	*part3	*part3	*part2	*part1
*staff13	*staff12	*	*staff11	*	*staff10	*	*staff9	*	*staff8	*staff7	*staff7	*staff7	*staff7	*staff7	*staff6	*staff6	*staff6	*staff6	*staff6	*staff5	*staff5	*staff5	*staff5	*staff5	*staff4	*staff3	*	*staff2	*staff1
*I"Organo	*I"Organo	*	*I"Baſso	*	*I"Viola unoblicat	*	*I"Violino 2do	*	*I"Violino Primo	*I"Baſso.	*	*	*	*	*I"Tenore.	*	*	*	*	*I"Canto.	*	*	*	*	*I"Cornuo 2do in A	*I"Cornuo. Primo in A	*	*I"Clarinetto in C	*I"Flauto.
*I'org	*I'org	*	*I'cb	*	*I'vla	*	*I'vl 2	*	*I'vl 1	*I'B	*	*	*	*	*I'T	*	*	*	*	*I'S	*	*	*	*	*I'cor 2 in A	*I'cor 1 in A	*	*I'cl in C	*I'fl
*ICklav	*ICklav	*	*ICstr	*	*ICstr	*	*ICstr	*	*ICstr	*ICvox	*	*	*	*	*ICvox	*	*	*	*	*ICvox	*	*	*	*	*ICbras	*ICbras	*	*ICww	*ICww
*Iorgan	*Iorgan	*	*Icbass	*	*Iviola	*	*Ivioln	*	*Ivioln	*Ibass	*	*	*	*	*Itenor	*	*	*	*	*Isoprn	*	*	*	*	*Icor	*Icor	*	*Iclars	*Iflt
*clefF4	*clefG2	*	*clefF4	*	*clefC3	*	*clefG2	*	*clefG2	*clefF4	*	*	*	*	*clefC4	*	*	*	*	*clefC1	*	*	*	*	*clefG2	*clefG2	*	*clefG2	*clefG2
*	*	*	*ITrd0c0	*	*	*	*	*	*	*	*	*	*	*	*	*	*	*	*	*	*	*	*	*	*ITrd2c3	*ITrd2c3	*	*	*
*>[ABBBB]	*>[ABBBB]	*	*>[ABBBB]	*	*>[ABBBB]	*	*>[ABBBB]	*	*>[ABBBB]	*>[ABBBB]	*	*	*	*	*>[ABBBB]	*	*	*	*	*>[ABBBB]	*	*	*	*	*>[ABBBB]	*>[ABBBB]	*	*>[ABBBB]	*>[ABBBB]
*k[f#c#g#]	*k[f#c#g#]	*	*k[f#c#g#]	*	*k[f#c#g#]	*	*k[f#c#g#]	*	*k[f#c#g#]	*k[f#c#g#]	*	*	*	*	*k[f#c#g#]	*	*	*	*	*k[f#c#g#]	*	*	*	*	*k[f#c#g#]	*k[f#c#g#]	*	*k[f#c#g#]	*k[f#c#g#]
*A:	*A:	*	*A:	*	*A:	*	*A:	*	*A:	*A:	*	*	*	*	*A:	*	*	*	*	*A:	*	*	*	*	*A:	*A:	*	*A:	*A:
*M6/8	*M6/8	*	*M6/8	*	*M6/8	*	*M6/8	*	*M6/8	*M6/8	*	*	*	*	*M6/8	*	*	*	*	*M6/8	*	*	*	*	*M6/8	*M6/8	*	*M6/8	*M6/8
=1	=1	=1	=1	=1	=1	=1	=1	=1	=1	=1	=1	=1	=1	=1	=1	=1	=1	=1	=1	=1	=1	=1	=1	=1	=1	=1	=1	=1	=1
*>A	*>A	*	*>A	*	*>A	*	*>A	*	*>A	*>A	*	*	*	*	*>A	*	*	*	*	*>A	*	*	*	*	*>A	*>A	*	*>A	*>A
*	*	*^	*	*	*	*	*	*	*	*	*	*	*	*	*	*	*	*	*	*	*	*	*	*	*	*	*	*	*
!	!	!	!	!LO:TX:t=Pastoralis\nModerato	!	!	!	!	!	!	!LO:TX:a:t=Moderatto Pastoralis.	!	!	!	!	!LO:TX:a:t=Moderatto Pastoralis.	!	!	!	!	!LO:TX:a:t=Moderatto Pastoralis	!	!	!	!	!LO:TX:a:t=Pastoralis	!LO:TX:a:t=Pastoralis	!	!	!
!	!	!LO:DY:rj:b	!LO:DY:rj:b=2	!LO:TX:t=P:problem:skan 11	!	!LO:TX:a:t=Pastoralis\nModerato	!LO:DY:rj:t=for	!LO:TX:t=Pastoralis\nModerato	!	!LO:TX:t=Pastoralis\nModerato	!LO:TX:a:t=1	!	!	!	!	!LO:TX:a:t=1	!	!	!	!	!LO:TX:a:t=1	!	!	!	!	!LO:TX:a:t=Moderato	!LO:TX:a:t=Moderato	!	!LO:TX:a:t=Pastoralis\nModerato	!LO:TX:a:t=Pastoralis\nModerato
4AA/	4aa\ 4ee\ 4cc#\ 4a\	f	f	4A\	.	4cc#\ 4e\ 4A\	f	4a/ 4e/ 4A/	.	4aa\ 4cc#\ 4e\	2.r	.	.	.	.	2.r	.	.	.	.	2.r	.	.	.	.	4c#/	4a\	.	4cc#\	4aa\
8r	8r	.	.	8r	.	8r	.	8r	.	8r	.	.	.	.	.	.	.	.	.	.	.	.	.	.	.	8r	8r	.	8r	8r
8A\L	8aa\L 8ee\ 8cc#\ 8a\	.	.	8A\L	.	8cc#\L 8e\ 8A\	.	8a/L 8e/	.	8aa\L 8cc#\ 8e\	.	.	.	.	.	.	.	.	.	.	.	.	.	.	.	8c#/L	8a\L	.	8a\L	8aa\L
8E\	8aa\ 8ee\ 8cc#\ 8a\	.	.	8E\	.	8cc#\ 8e\ 8A\	.	8a/ 8e/	.	8aa\ 8cc#\ 8e\	.	.	.	.	.	.	.	.	.	.	.	.	.	.	.	8c#/	8a\	.	8cc#\	8ccc#\
8C#\J	8aa\J 8ee\ 8cc#\ 8a\	.	.	8C#\J	.	8cc#\J 8e\ 8A\	.	8a/J 8e/	.	8aa\J 8cc#\ 8e\	.	.	.	.	.	.	.	.	.	.	.	.	.	.	.	8c#/J	8a\J	.	8ee\J	8eee\J
*	*	*v	*v	*	*	*	*	*	*	*	*	*	*	*	*	*	*	*	*	*	*	*	*	*	*	*	*	*	*	*
=2	=2	=2	=2	=2	=2	=2	=2	=2	=2	=2	=2	=2	=2	=2	=2	=2	=2	=2	=2	=2	=2	=2	=2	=2	=2	=2	=2	=2	=2
4.AA/	4.aa\ 4.ee\ 4.cc#\ 4.a\	.	4.AA/	.	4.cc#\ 4.e\	.	4.a/ 4.e/ 4.A/	.	4.aa\ 4.cc#\ 4.e\	4r	.	.	.	.	2r	.	.	.	.	4r	.	.	.	.	4.c#/	4.a;\	.	4.aa\	4.aaa\
.	.	.	.	.	.	.	.	.	.	8r	.	.	.	.	.	.	.	.	.	8r	.	.	.	.	.	.	.	.	.
4r	4r	.	4r;	.	4r	.	4r	.	4r	4r	.	.	.	.	.	.	.	.	.	4r	.	.	.	.	4r;	4r	.	4r;	4r;
.	.	.	.	.	.	.	.	.	.	.	.	.	.	.	8r	.	.	.	.	.	.	.	.	.	.	.	.	.	.
!LO:TX:t=[segno]	!LO:TX:t=[segno]	!	!LO:TX:t=[segno]	!	!LO:TX:t=[segno]	!	!LO:TX:t=[segno]	!	!LO:TX:t=[segno]	!LO:TX:t=[segno]	!	!	!	!	!LO:TX:t=[segno]	!	!	!	!	!LO:TX:t=[segno]	!	!	!	!	!LO:TX:t=[segno]	!LO:TX:t=[segno]	!	!LO:TX:t=[segno]	!LO:TX:t=[segno]
!LO:TX:t=P:problem:znak segno na kresce taktowej	!LO:TX:t=P:problem:znak segno na kresce taktowej	!	!LO:TX:t=P:problem:znak segno na kresce taktowej	!	!LO:TX:t=P:problem:znak segno na kresce taktowej	!	!LO:TX:t=P:problem:znak segno na kresce taktowej	!	!LO:TX:t=P:problem:znak segno na kresce taktowej	!LO:TX:t=P:problem:znak segno na kresce taktowej	!	!	!	!	!LO:TX:t=P:problem:znak segno na kresce taktowej	!	!	!	!	!LO:TX:t=P:problem:znak segno na kresce taktowej	!	!	!	!	!LO:TX:t=P:problem:znak segno na kresce taktowej	!LO:TX:t=P:problem:znak segno na kresce taktowej	!	!LO:TX:t=P:problem:znak segno na kresce taktowej	!LO:TX:t=P:problem:znak segno na kresce taktowej
=	=	=	=	=	=	=	=	=	=	=	=	=	=	=	=	=	=	=	=	=	=	=	=	=	=	=	=	=	=
*>B	*>B	*	*>B	*	*>B	*	*>B	*	*>B	*>B	*	*	*	*	*>B	*	*	*	*	*>B	*	*	*	*	*>B	*>B	*	*>B	*>B
*	*	*	*	*	*	*	*	*	*	*	*v:1	*v:2	*v:3	*v:4	*	*v:1	*v:2	*v:3	*v:4	*	*v:1	*v:2	*v:3	*v:4	*	*	*	*	*
!	!	!LO:DY:rj	!	!	!	!	!	!	!	!	!	!	!	!	!	!	!	!	!	!	!	!	!	!	!	!	!	!	!
8r	8e/	p	8r	.	8r	.	8r	.	8r	8E\	A-	Z czło-	I	U-	8E/	A-	Z czło-	I	U-	8d/	A-	Z czło-	I	U-	8r	8r	.	8r	8r
=3	=3	=3	=3	=3	=3	=3	=3	=3	=3	=3	=3	=3	=3	=3	=3	=3	=3	=3	=3	=3	=3	=3	=3	=3	=3	=3	=3	=3	=3
!	!	!	!	!	!	!	!	!	!	!	!	!	!	!	!	!	!	!	!	!	!	!	!	!	!LO:TX:a:t=16	!LO:TX:a:t=16	!	!LO:TX:a:t=15	!LO:TX:a:t=15
!	!	!	!	!LO:DY:rj	!	!	!	!	!	!	!	!	!	!	!	!	!	!	!	!	!	!	!	!	!LO:N:vis=00	!LO:N:vis=00	!	!	!
4AA/	4a/ 4e/ 4c#/	.	4AA/	p	4c#\	.	4c#/	.	4e/	4AA/	-niel-	-wie-	ktoz	-pa-	4c#\	-niel-	-wie-	ktoz	-pa-	8a\L	-niel-	-wie-	ktoz	-pa-	0.r	0.r	.	2.r	2.r
.	.	.	.	.	.	.	.	.	.	.	.	.	.	.	.	.	.	.	.	8cc#\J	.	.	.	.	.	.	.	.	.
8r	8r	.	8r	.	8c#\	.	8c#/	.	8e/	8A\	-ski	-czeń-	by	-dniy-	8c#\	-ski	-czeń-	by	-dniy-	8e/	-ski	-czeń-	by	-dniy-	.	.	.	.	.
4AA/	4a/ 4e/ 4c#/	.	4AA/	.	4c#\	.	4c#/	.	4e/	8A\	chór	-stwem	tak	-my	8c#\	Chor	-stwem	tak	-my	8a\	Chor	-stwem	tak	-my	.	.	.	.	.
.	.	.	.	.	.	.	.	.	.	8A\	Pa-	wraz	do-	do	8c#\	Pa-	wraz	do-	do	8cc#\	Pa-	wraz	do-	do	.	.	.	.	.
!	!	!	!	!	!	!	!	!	!	!	!	!	!	!LO:SIC:v:s=nu-	!	!	!	!	!	!	!	!	!	!	!	!	!	!	!
8r	8r	.	8r	.	8c#\	.	8c#/	.	8e/	8A\	-ste-	nę-	-bre-	na-	8c#\	-ste-	nę-	-bre-	nu-	8e/	-ste-	nę-	-bre-	nu-	.	.	.	.	.
=4	=4	=4	=4	=4	=4	=4	=4	=4	=4	=4	=4	=4	=4	=4	=4	=4	=4	=4	=4	=4	=4	=4	=4	=4	=4	=4	=4	=4	=4
*	*	*	*	*	*rep	*	*	*	*	*	*	*	*	*	*	*	*	*	*	*	*	*	*	*	*	*	*	*	*
!	!	!	!	!	!	!	!	!	!	!	!	!	!	!	!LO:TX:t=P:problem:podpisanie tekstu dostosowane do rytmu - w źródle w tt. 4-8 tekst skondensowany	!	!	!	!	!	!	!	!	!	!	!	!	!	!
4AA/	4a/ 4e/ 4c#/	.	4A\	.	4c#\	.	4.c#/	.	4.e/	4A\	-rzom	-dze	-go	-żek	4.c#\	-rzom,	-dze	-go	-żek	4a\	-rzom	-dze	-go	-zek	.	.	.	2.r	2.r
8r	8r	.	8r	.	8c#\	.	.	.	.	8AA/	.	.	.	.	.	.	.	.	.	8cc#\	o-	na	Pa-	tey	.	.	.	.	.
4AA/	4a/ 4e/ 4c#/	.	4AA/	.	4c#\	.	4c#/	.	4e/	4AA/	o-	na	Pa-	tak	4c#\	o-	na	Pa-	tey	4ee\	-gła-	sie-	-na	ma-	.	.	.	.	.
8AA/	8a/ 8e/ 8c#/	.	8r	.	8c#\	.	8c#/	.	8e/	8AA/	-gła-	sie-	-na	ma-	8c#\	gła-	sie-	-na	ma-	8cc#\	-sza.	-bie	nie	-łey	.	.	.	.	.
*	*	*	*	*	*Xrep	*	*	*	*	*	*	*	*	*	*	*	*	*	*	*	*	*	*	*	*	*	*	*	*
=5	=5	=5	=5	=5	=5	=5	=5	=5	=5	=5	=5	=5	=5	=5	=5	=5	=5	=5	=5	=5	=5	=5	=5	=5	=5	=5	=5	=5	=5
4E\	4b/ 4g#/ 4e/ 4d/	.	4E\	.	4d\ 4B\	.	4d/ 4B/	.	4g#/	4E\	-sza	-bie	nie	-łey	4d\	-sza.	-bie	nie	-łey	4dd\	Zba-	przyi-	mi-	dzie-	.	.	.	2.r	2.r
8r	8r	.	8r	.	8d\ 8B\	.	8d/ 8B/	.	8g#/	8E\	Zba-	przyi-	mi-	dzie-	8d\	Zba-	przyi-	mi-	dzie-	8e/	.	.	.	.	.	.	.	.	.
4E\	4b/ 4g#/ 4e/ 4d/	.	4E\	.	4d\ 4B\	.	4d/ 4B/	.	4g#/	4E\	.	.	.	.	4d\	.	.	.	.	8e/L	.	.	.	.	.	.	.	.	.
.	.	.	.	.	.	.	.	.	.	.	.	.	.	.	.	.	.	.	.	8f#/J	.	.	.	.	.	.	.	.	.
!	!	!	!	!	!	!	!	!	!	!	!	!	!	!	!	!	!	!	!	!LO:N:vis=4	!	!	!	!	!	!	!	!	!
8E\	8b/ 8g#/ 8e/ 8d/	.	8r	.	8d\ 8B\	.	8d/ 8B/	.	8g#/	8E\	-wie-	-mu-	-ło-	-ci-	8d\	-wie-	-mu-	-ło-	-ci-	8g#/	-wie-	-mu-	-ło-	-ci-	.	.	.	.	.
!	!	!	!	!	!LO:LB:g=original	!	!LO:LB:g=original	!	!	!	!	!	!	!	!	!	!	!	!	!	!	!	!	!	!	!	!	!	!
=6	=6	=6	=6	=6	=6	=6	=6	=6	=6	=6	=6	=6	=6	=6	=6	=6	=6	=6	=6	=6	=6	=6	=6	=6	=6	=6	=6	=6	=6
4.AA/	4.a/ 4.e/ 4.c#/	.	4.AA/	.	4.e\ 4.c#\	.	4.e/ 4.c#/	.	4.e/	4.AA/	-nie,	-ie,	-wał.	-ny,	4c#\	-nie	-ie.	-wał.	-ny.	4.a\	-nie,	-ie,	-wał.	-ny.	.	.	.	2.r	2.r
.	.	.	.	.	.	.	.	.	.	.	.	.	.	.	8r	.	.	.	.	.	.	.	.	.	.	.	.	.	.
4r	4r	.	4AA/	.	4e\ 4c#\	.	4e/ 4c#/	.	4e/	4r	.	.	.	.	4r	.	.	.	.	4r	.	.	.	.	.	.	.	.	.
8r	8e/	.	8r	.	8r	.	8r	.	8r	8E\	Zwia-	Nie-	On	Proś-	8E/	Zwia-	Nie-	On	Proś-	8e/	Zwias-	Nie-	On	Proś-	.	.	.	.	.
!LO:LB:g=original	!LO:LB:g=original	!	!LO:LB:g=original	!	!	!	!	!	!LO:LB:g=original	!	!	!	!	!	!	!	!	!	!	!	!	!	!	!	!	!	!	!	!
=7	=7	=7	=7	=7	=7	=7	=7	=7	=7	=7	=7	=7	=7	=7	=7	=7	=7	=7	=7	=7	=7	=7	=7	=7	=7	=7	=7	=7	=7
!	!	!	!	!	!	!	!	!	!	!LO:TX:t=P:problem:podpisanie tekstu dostosowane do rytmu - w źródle w t. 7 tekst skondensowany	!	!	!	!	!	!	!	!	!	!	!	!	!	!	!LO:N:vis=00	!LO:N:vis=00	!	!	!
4AA/	4a/ 4e/ 4c#/	.	4A\	.	4c#\	.	4c#/	.	4e/	4AA/	-stu-	-do-	nam	-my	4c#\	-stu-	-do-	nam	-my	8a\	-tu-	-do-	nam	-my	0.r	0.r	.	2.r	2.r
.	.	.	.	.	.	.	.	.	.	.	.	.	.	.	.	.	.	.	.	8cc#\	-iąc	-sta-	swia-	a-	.	.	.	.	.
8r	8r	.	8r	.	8c#\	.	8c#/	.	8e/	8A\	-iąc	-sta-	swia-	a-	8c#\	-iąc	-sta-	swia-	a-	8e/	im	-tek	-tło	-by	.	.	.	.	.
4AA/	4a/ 4e/ 4c#/	.	4A\	.	4c#\	.	4c#/	.	4e/	8A\	im	-tek	-tło	-by	4c#\	im	-tek	-tło	-by	8a\	Bos-	u-	u-	na	.	.	.	.	.
.	.	.	.	.	.	.	.	.	.	8A\	Bos-	u-	u-	na	.	.	.	.	.	8cc#\	-kie-	-bos-	-ka-	sie-	.	.	.	.	.
8r	8r	.	8r	.	8c#\	.	8c#/	.	8e/	8A\	-kie-	-bos-	-ka-	sie-	8c#\	Bos-	u-	u-	na	8e/	-go	-two	-zał	-bie	.	.	.	.	.
!	!	!	!	!	!	!	!	!	!	!LO:LB:g=original	!	!	!	!	!LO:LB:g=original	!	!	!	!	!LO:LB:g=original	!	!	!	!	!	!	!	!	!
=8	=8	=8	=8	=8	=8	=8	=8	=8	=8	=8	=8	=8	=8	=8	=8	=8	=8	=8	=8	=8	=8	=8	=8	=8	=8	=8	=8	=8	=8
*rep	*rep	*	*	*	*rep	*	*	*	*	*	*	*	*	*	*	*	*	*	*	*	*	*	*	*	*	*	*	*	*
4AA/	4a/ 4e/ 4c#/	.	4A\	.	4c#\	.	4.c#/	.	4.e/	4.A\	-go	-two	-zał	-bie	4.c#\	-kie-	-bos-	-ka-	sie-	4a\	sło-	głod	od	przy.-	.	.	.	2.r	2.r
8r	8r	.	8r	.	8c#\	.	.	.	.	.	.	.	.	.	.	.	.	.	.	8cc#\	.	.	.	.	.	.	.	.	.
4AA/	4a/ 4e/ 4c#/	.	4AA/	.	4c#\	.	4c#/	.	4e/	4AA/	sło-	głod	od	przy-	4c#\	-go	-two	-zał	-bie	4ee\	.	.	.	.	.	.	.	.	.
8r	8r	.	8r	.	8c#\	.	8c#/	.	8e/	8AA/	-wa,	bo-	pie-	-iął.	8c#\	sło-	głod	od	przy-	8cc#\	-wa	bo-	pie-	-iął	.	.	.	.	.
*Xrep	*Xrep	*	*	*	*Xrep	*	*	*	*	*	*	*	*	*	*	*	*	*	*	*	*	*	*	*	*	*	*	*	*
=9	=9	=9	=9	=9	=9	=9	=9	=9	=9	=9	=9	=9	=9	=9	=9	=9	=9	=9	=9	=9	=9	=9	=9	=9	=9	=9	=9	=9	=9
4E\	4b/ 4g#/ 4e/ 4d/	.	4E\	.	4d\ 4B\	.	4d/ 4B/	.	4g#/	8E\	wy-	-le-	-kła	na-	4d\	-wa	bo-	pie-	-iął	4b\	wy-	-le-	-kła	na-	.	.	.	2.r	2.r
!	!	!	!	!	!	!	!	!	!	!LO:N:vis=4.	!	!	!	!	!	!	!	!	!	!	!	!	!	!	!	!	!	!	!
.	.	.	.	.	.	.	.	.	.	2E\	-peł-	-sci	za-	-sze	.	.	.	.	.	.	.	.	.	.	.	.	.	.	.
8r	8r	.	8r	.	8d\ 8B\	.	8d/ 8B/	.	8g#/	.	.	.	.	.	8d\	wy-	-le-	-kła	na-	8e/	-peł-	-ści	za-	-sze	.	.	.	.	.
4E\	4b/ 4g#/ 4e/ 4d/	.	4E\	.	4d\ 4B\	.	4d/ 4B/	.	4g#/	.	.	.	.	.	4d\	-peł-	-sci	za-	-sze	8e/L	.	.	.	.	.	.	.	.	.
.	.	.	.	.	.	.	.	.	.	.	.	.	.	.	.	.	.	.	.	8f#/	-nie-	czu-	-cho-	wi-	.	.	.	.	.
8E\	8b/ 8g#/ 8e/ 8d/	.	8r	.	8d\ 8B\	.	8d/ 8B/	.	8g#/	8E\	-nie-	czu-	-cho-	wi-	8d\	-nie-	czu-	-cho-	wi-	8g#/J	.	.	.	.	.	.	.	.	.
=10	=10	=10	=10	=10	=10	=10	=10	=10	=10	=10	=10	=10	=10	=10	=10	=10	=10	=10	=10	=10	=10	=10	=10	=10	=10	=10	=10	=10	=10
4AA/	4.a/ 4.e/ 4.c#/	.	4.AA/	.	4.e\ 4.c#\	.	4.e/ 4.c#/	.	4.e/	4.AA/	-nie,	-ie.	-wał.	-ny.	4.c#\	-nie.	-ie.	-wał	-ny.	4.a\	-nie.	-ie.	-wał.	-ny.	.	.	.	2.r	2.r
8ryy	.	.	.	.	.	.	.	.	.	.	.	.	.	.	.	.	.	.	.	.	.	.	.	.	.	.	.	.	.
4r	4r	.	4AA/	.	4e\ 4c#\	.	4e/ 4c#/	.	4e/	4r	.	.	.	.	4r	.	.	.	.	4r	.	.	.	.	.	.	.	.	.
8E\	8a/ 8e/ 8c#/	.	8r	.	8e\	.	8e/	.	8e/	8E\	Że	Tak	Więc	Dzię-	8e\	Że	Tak	Więc	Dzię-	8cc#\	Że	Tak	Więc	Dzię-	.	.	.	.	.
=11	=11	=11	=11	=11	=11	=11	=11	=11	=11	=11	=11	=11	=11	=11	=11	=11	=11	=11	=11	=11	=11	=11	=11	=11	=11	=11	=11	=11	=11
!	!	!	!	!	!	!	!	!	!	!LO:N:vis=8	!	!	!	!	!	!	!	!	!	!	!	!	!	!	!LO:N:vis=00	!LO:N:vis=00	!	!	!
4E\	(>4b/ 4d/	.	4E\	.	8r	.	8r	.	8r	4E\	w szop-	nas	ra-	-kuy-	4d\	w szop-	nas	ra-	-kuy-	4b\	w szop-	nas	ra-	-kuy-	0.r	0.r	.	2.r	2.r
.	.	.	.	.	8d\L	.	8d/L	.	8g#/L	.	.	.	.	.	.	.	.	.	.	.	.	.	.	.	.	.	.	.	.
8E\	8a#X/ 8c#/)	.	8r	.	8c#\J	.	8c#/J	.	8e/J	8E\	-ce	to	-zem	-my	8c#\	-ce	to	-zem	-my	8a#X\	-ce	to	-zem	-my	.	.	.	.	.
4E\	4b/ 4d/	.	4E\	.	8r	.	8r	.	8r	4E\	z czy-	Bóg	z Pa-	że	4d\	z czy-	Bóg	z Pas-	że	4b\	z czy-	Bóg	z Pas-	ze	.	.	.	.	.
.	.	.	.	.	8d\L	.	8d/L	.	8g#/L	.	.	.	.	.	.	.	.	.	.	.	.	.	.	.	.	.	.	.	.
8E\	8cc#/ 8e/	.	8r	.	8e\J	.	8e/J	.	8b/J	8E\	-stey	u-	-ste-	się	8e\	-stey	u-	-te-	się	8cc#\	-stey	u-	-te-	się	.	.	.	.	.
=12	=12	=12	=12	=12	=12	=12	=12	=12	=12	=12	=12	=12	=12	=12	=12	=12	=12	=12	=12	=12	=12	=12	=12	=12	=12	=12	=12	=12	=12
!	!	!	!	!	!	!	!	!	!	!LO:N:vis=4.	!	!	!	!	!	!	!	!	!	!	!	!	!	!	!	!	!	!	!
4.AA/	4.a/ 4.e/ 4.c#/	.	4A\	.	8r	.	8r	.	8r	4A\	Pan-	-ko-	-rza-	zni-	4.c#\	Pan-	-ko-	-rza-	zni-	4.an\	Pan-	-ko-	-rza-	zni-	.	.	.	2.r	2.r
.	.	.	.	.	8c#\L	.	8c#/L	.	8e/L	.	.	.	.	.	.	.	.	.	.	.	.	.	.	.	.	.	.	.	.
.	.	.	8r	.	8a\J	.	8a/J	.	8a/J	4AA/	-ny	-chał,	-mi,	-żył	.	.	.	.	.	.	.	.	.	.	.	.	.	.	.
4AA/	4a/ 4e/ 4c#/	.	4AA/	.	8r	.	8r	.	8r	.	.	.	.	.	4c#\	-ny	-chał	-mi	-żył	4e/	-ny	-chał	-mi	-żył	.	.	.	.	.
!	!	!	!	!	!	!	!	!	!	!	!	!LO:SIC:v:s=zstę-	!	!	!	!	!	!	!	!	!	!	!	!	!	!	!	!	!
.	.	.	.	.	8cc#\L	.	8a/L	.	8cc#\L	4E\	Zba-	ztę-	za-	do	.	.	.	.	.	.	.	.	.	.	.	.	.	.	.
8AA/	8a/ 8e/ 8c#/	.	8r	.	8a\J	.	8e/J	.	8a\J	.	.	.	.	.	8e\	Zba-	zstę-	za-	do	8cc#\	Zba-	zstę-	za-	do	.	.	.	.	.
!	!	!	!	!	!LO:LB:g=original	!	!	!	!	!	!	!	!	!	!	!	!	!	!	!	!	!	!	!	!	!	!	!	!
=13	=13	=13	=13	=13	=13	=13	=13	=13	=13	=13	=13	=13	=13	=13	=13	=13	=13	=13	=13	=13	=13	=13	=13	=13	=13	=13	=13	=13	=13
*^	*	*	*	*	*	*	*	*	*	*	*	*	*	*	*	*	*	*	*	*	*	*	*	*	*	*	*	*	*
!	!LO:SIC:v:s=4ryyyy	!	!	!	!	!	!	!	!	!	!	!	!	!	!	!	!	!	!	!	!	!	!	!	!	!	!	!	!	!
4E\	4D/ 4FF#/	4b/ 4d/	.	4E\	.	8r	.	8r	.	8r	4E\	-wi-	-pu-	-nuć-	stay-	4d\	-wi-	-pu-	-nuć-	stay-	4b\	-wi-	-pu-	-nuć-	stay-	.	.	.	2.r	2.r
.	.	.	.	.	.	8d\L	.	8d/L	.	8g#/L	.	.	.	.	.	.	.	.	.	.	.	.	.	.	.	.	.	.	.	.
8E\	2ryyyy	8a#X/ 8c#/	.	8r	.	8c#\J	.	8c#/J	.	8e/J	8E\	-ciel	-iąc	-my	-ni,	8c#\	-ciel	-iąc	-my	-ni	8a#X\	-ciel	-iąc	-my	-ni	.	.	.	.	.
4E\	.	8b/L 8d/	.	4E\	.	8r	.	8r	.	8r	4E\	się	w ni-	przy	i	8d\L	się	w ni-	przy	i	8dd\L	się	w ni-	przy	i	.	.	.	.	.
.	.	8dd/ 8f#/	.	.	.	8d\L	.	8d/L	.	8g#/L	.	.	.	.	.	8f#\J	.	.	.	.	8ff#\J	.	.	.	.	.	.	.	.	.
!	!	!	!	!	!	!	!	!	!	!	!	!	!	!	!	!	!	!	!	!	!LO:N:vis=4	!	!	!	!	!	!	!	!	!
8E\	.	8cc#/J 8e/	.	8r	.	8d\J	.	8e/J	.	8b/J	8E\	zro-	-sko-	żło-	żło-	8d\	zro-	-sko-	żło-	żło-	8cc#\	zro-	-sko-	żło-	zło-	.	.	.	.	.
*v	*v	*	*	*	*	*	*	*	*	*	*	*	*	*	*	*	*	*	*	*	*	*	*	*	*	*	*	*	*	*
!	!	!	!	!	!	!	!LO:LB:g=original	!	!LO:LB:g=original	!	!	!	!	!	!	!	!	!	!	!	!	!	!	!	!	!	!	!	!
=14	=14	=14	=14	=14	=14	=14	=14	=14	=14	=14	=14	=14	=14	=14	=14	=14	=14	=14	=14	=14	=14	=14	=14	=14	=14	=14	=14	=14	=14
4.AA/	4.a/ 4.e/ 4.c#/	.	4.AA/	.	8r	.	4c#/	.	4.e/	4.A\	-dził.	-ści.	-bie.	-bu.	4.c#\	-dził.	-ści.	-bie.	-bu.	4.an\	-dził.	-ści.	-bie.	-bu	.	.	.	2.r	2.r
.	.	.	.	.	4c#\	.	.	.	.	.	.	.	.	.	.	.	.	.	.	.	.	.	.	.	.	.	.	.	.
.	.	.	.	.	.	.	8r	.	.	.	.	.	.	.	.	.	.	.	.	.	.	.	.	.	.	.	.	.	.
4r	4r	.	4AA/	.	8r	.	8r	.	8r	4r	.	.	.	.	4r	.	.	.	.	4r	.	.	.	.	.	.	.	.	.
.	.	.	.	.	(8a\L	.	8a/L	.	8a/L	.	.	.	.	.	.	.	.	.	.	.	.	.	.	.	.	.	.	.	.
8r	8e/	.	8r	.	8c#\J)	.	8c#/J	.	8e/J	8E\	By	I	On	A-	8E/	By	I	On	a-	8e/	By.	I.	On.	A.-	.	.	.	.	.
!	!	!	!	!	!	!	!	!	!	!LO:LB:g=original	!	!	!	!	!LO:LB:g=original	!	!	!	!	!LO:LB:g=original	!	!	!	!	!	!	!	!	!
=15	=15	=15	=15	=15	=15	=15	=15	=15	=15	=15	=15	=15	=15	=15	=15	=15	=15	=15	=15	=15	=15	=15	=15	=15	=15	=15	=15	=15	=15
!	!	!	!	!	!	!	!	!	!	!	!	!	!	!	!	!	!	!	!	!	!	!	!	!	!LO:N:vis=00	!LO:N:vis=00	!	!	!
4AA/	4a/ 4e/ 4c#/	.	4AA/	.	4c#\	.	4c#/	.	4e/	4AA/	nam	chcąc	nam	-że-	4c#\	nam	chcąc	nam	-że-	8a\L	nam	chcąc	nam	-że-	0.r	0.r	.	2.r	2.r
.	.	.	.	.	.	.	.	.	.	.	.	.	.	.	.	.	.	.	.	8cc#\J	.	.	.	.	.	.	.	.	.
8r	8r	.	8r	.	8c#\	.	8c#/	.	8e/	8A\	nie-	nas	po-	-by	8c#\	Nie-	nas	po-	-by	8e/	Nie-	nas	po-	-by	.	.	.	.	.
4AA/	4a/ 4e/ 4c#/	.	4A\	.	4c#\	.	4c#/	.	4e/	4A\	-bo	do	-bło-	nas	4c#\	-bo	do	-bło-	nas	8a\L	-bo	do	-bło-	nas	.	.	.	.	.
.	.	.	.	.	.	.	.	.	.	.	.	.	.	.	.	.	.	.	.	8cc#\J	.	.	.	.	.	.	.	.	.
8r	8r	.	8r	.	8c#\	.	8c#/	.	8e/	8A\	o-	wza-	-go-	wy-	8c#\	o-	wza-	-go-	wy-	8e/	o-	wza-	-go-	wy-	.	.	.	.	.
!LO:LB:g=original	!LO:LB:g=original	!	!LO:LB:g=original	!	!	!	!	!	!	!	!	!	!	!	!	!	!	!	!	!	!	!	!	!	!	!	!	!	!
=16	=16	=16	=16	=16	=16	=16	=16	=16	=16	=16	=16	=16	=16	=16	=16	=16	=16	=16	=16	=16	=16	=16	=16	=16	=16	=16	=16	=16	=16
*	*	*	*	*	*rep	*	*	*	*	*	*	*	*	*	*	*	*	*	*	*	*	*	*	*	*	*	*	*	*
4AA/	4a/ 4e/ 4c#/	.	4A\	.	4c#\	.	4.c#/	.	4.e/	4.A\	-two-	-iem-	-sła-	-wyż-	4.c#\	-two-	-iem-	-sła-	-wyż-	8a\L	-two-	-iem-	-sła-	-wyż-	.	.	.	2.r	2.r
.	.	.	.	.	.	.	.	.	.	.	.	.	.	.	.	.	.	.	.	8cc#\	.	.	.	.	.	.	.	.	.
8r	8r	.	8r	.	8c#\	.	.	.	.	.	.	.	.	.	.	.	.	.	.	8ff#\J	.	.	.	.	.	.	.	.	.
4AA/	4a/ 4e/ 4c#/	.	4AA/	.	4c#\	.	4c#/	.	4e/	4AA/	-rzył,	-ney	-wi,	-szył,	4c#\	-rzył	-ney	-wi	-szył	4ee\	-rzył	-ney	-wi	-szył	.	.	.	.	.
8AA/	8cc#\ 8a\	.	8r	.	8c#\	.	8c#/	.	8e/	8AA/	z wię-	po-	i	wy-	8A/	z wię-	po-	i	wy-	8cc#\	z wię-	po-	i	wy-	.	.	.	.	.
*	*	*	*	*	*Xrep	*	*	*	*	*	*	*	*	*	*	*	*	*	*	*	*	*	*	*	*	*	*	*	*
=17	=17	=17	=17	=17	=17	=17	=17	=17	=17	=17	=17	=17	=17	=17	=17	=17	=17	=17	=17	=17	=17	=17	=17	=17	=17	=17	=17	=17	=17
4E\	4b\ 4g#\	.	4E\	.	4B/	.	4B/	.	4g#/	4E\	-zów	-cią-	u-	-wiodł	4G#/	-zow	-cią-	u-	-wiodł	4b\	-zow	-cią-	u-	-wiodł	.	.	.	2.r	2.r
8E\	8cc#\ 8a\	.	8r	.	8c#/	.	8c#/	.	8a/	8E\	o-	-gnąć	-lu-	z cie-	8A/	o-	-gnąć	-lu-	z cie-	8cc#\	o-	-gnąć	-lu-	z cie-	.	.	.	.	.
4E\	4dd\ 4b\	.	4E\	.	4d\	.	4d/	.	4b/	4E\	-swo-	mi-	-bi	-nia	4B/	-swo-	mi-	-bi	-nia	4dd\	-swo-	mi-	-bi	-nia	.	.	.	.	.
8E\	8ee\ 8b\ 8g#\	.	8r	.	8e\	.	8e/	.	8g#/	8E\	-bo-	-ło-	so-	gro-	8G#/	-bo-	-ło-	so-	gro-	8ee\	-bo-	-ło-	so-	gro-	.	.	.	.	.
=18	=18	=18	=18	=18	=18	=18	=18	=18	=18	=18	=18	=18	=18	=18	=18	=18	=18	=18	=18	=18	=18	=18	=18	=18	=18	=18	=18	=18	=18
.	.	.	.	.	.	.	.	.	.	.	.	.	.	.	.	.	.	.	.	8qdd/	.	.	.	.	.	.	.	.	.
4.A/ 4.AA/	4.cc#\ 4.a\	.	4.A\	.	4.c#\	.	4.c#/	.	4.e/	4.A\	-dził,	-ści.	-bie.	-bu.	4A/	-dził.	-ści.	-bie.	-bu.	4cc#\	-dził	-ści	-bie,	-bu	.	.	.	4r	4r
.	.	.	.	.	.	.	.	.	.	.	.	.	.	.	8ryy	.	.	.	.	8r	.	.	.	.	.	.	.	8r	8r
4r	4r	f	4A\	.	4c#\	.	4c#/	.	4e/	4r	.	.	.	.	4r	.	.	.	.	4r	.	.	.	.	.	.	.	4r	4r
!	!	!	!	!	!	!	!	!	!	!LO:TX:a:t=tutti	!	!	!	!	!LO:TX:a:t=tutti	!	!	!	!	!	!	!	!	!	!	!	!	!	!
8r	8e/	.	8r	.	8e\	.	8e/	.	8e/	8E\	By	I	On	a-	8E/	By	I	On	a-	8e/	By	I	On	a-	.	.	.	8ee\	8ee\
=19	=19	=19	=19	=19	=19	=19	=19	=19	=19	=19	=19	=19	=19	=19	=19	=19	=19	=19	=19	=19	=19	=19	=19	=19	=19	=19	=19	=19	=19
!	!LO:TX:a:t=Tutti	!	!	!	!	!LO:DY:rj:t=for	!	!	!	!	!	!	!	!	!	!	!	!	!	!	!	!	!	!	!	!	!	!	!
4AA/	4a/ 4e/ 4c#/	.	4AA/	.	4a\ 4c#\	f	4a/ 4c#/	.	4e/	4AA/	nam	chcąc	nam	-że-	4c#\	nam	chcąc	nam	-że-	8a\L	nam	chcąc	nam	-że-	4c#/	4a\	.	4cc#\	(8aa\L
.	.	.	.	.	.	.	.	.	.	.	.	.	.	.	.	.	.	.	.	8cc#\J	.	.	.	.	.	.	.	.	8ccc#\)
8r	8r	.	8r	.	8a\ 8c#\	.	8a/ 8c#/	.	8e/	8A\	nie-	nas	po-	-by	8c#\	nie-	nas	po-	-by	8e/	nie-	nas	po-	-by	8c#/	8a\	.	8r	8ee\J
*	*	*	*	*	*	*	*	*	*	*	*	*	*	*	*	*	*	*	*	*	*	*	*	*	*	*	*	*	*rep
4AA/	4a/ 4e/ 4c#/	.	4A\	.	4a\ 4c#\	.	4a/ 4c#/	.	4e/	4A\	-bo	do	-bło-	nas	4c#\	-bo	do	-bło-	nas	8a\L	-bo	do	-bło-	nas	4c#/	4a\	.	4cc#\	(8aa\L
.	.	.	.	.	.	.	.	.	.	.	.	.	.	.	.	.	.	.	.	8cc#\J	.	.	.	.	.	.	.	.	8ccc#\)
8r	8r	.	8r	.	8a\ 8c#\	.	8a/ 8c#/	.	8e/	8A\	o-	wza-	-go-	wy-	8c#\	o-	wza-	-go-	wy-	8e/	o-	wza-	-go-	wy-	8c#/	8a\	.	8r	8ee\J
*	*	*	*	*	*	*	*	*	*	*	*	*	*	*	*	*	*	*	*	*	*	*	*	*	*	*	*	*	*Xrep
!	!	!	!	!	!	!	!	!	!	!	!	!	!	!	!	!	!	!	!	!LO:LB:g=original	!	!	!	!	!	!	!	!LO:LB:g=original	!
=20	=20	=20	=20	=20	=20	=20	=20	=20	=20	=20	=20	=20	=20	=20	=20	=20	=20	=20	=20	=20	=20	=20	=20	=20	=20	=20	=20	=20	=20
*	*	*	*	*	*rep	*	*rep	*	*	*	*	*	*	*	*	*	*	*	*	*	*	*	*	*	*rep	*	*	*	*
!	!	!	!	!	!	!	!	!	!	!	!	!	!	!	!	!	!	!	!	!	!	!	!	!	!	!LO:TX:t=P:problem:taka zapisany repetycją	!	!	!
4AA/	4a/ 4e/ 4c#/	.	4A\	.	4a\ 4c#\	.	4a/ 4c#/	.	4.e/	4.A\	-two-	-iem-	-sła-	-wyż-	4.c#\	-two-	-iem-	-sła-	-wyż-	8a\L	-two-	-iem-	-sła-	-wyz-	4c#/	4a\yy	.	(4cc#\	(8aa\L
.	.	.	.	.	.	.	.	.	.	.	.	.	.	.	.	.	.	.	.	8cc#\	.	.	.	.	.	.	.	.	8ccc#\)
8r	8r	.	8r	.	8a\ 8c#\	.	8a/ 8c#/	.	.	.	.	.	.	.	.	.	.	.	.	8ff#\J	.	.	.	.	8c#/	8a\yy	.	8cc#\)	8fff#\J
4AA/	4a/ 4e/ 4c#/	.	4AA/	.	4a\ 4c#\	.	4a/ 4c#/	.	4e/	4AA/	-rzył,	-ney	-wi	-szył	4c#\	-rzył	-ney	-wi	-szył	4ee\	-rzył	-ney	-wi	-szył,	4c#/	4a\yy	.	(4cc#\	4eee\
8AA/	8cc#\ 8a\	.	8AA/	.	8a\ 8c#\	.	8a/ 8c#/	.	8a/	8AA/	z wię-	po-	i	wy-	8A\	z wię-	po-	i	wy-	8cc#\	zwię-	po-	i	wy-	8c#/	8a\yy	.	8aa\)	8ccc#\
*	*	*	*	*	*Xrep	*	*Xrep	*	*	*	*	*	*	*	*	*	*	*	*	*	*	*	*	*	*Xrep	*	*	*	*
!	!	!	!	!	!LO:LB:g=original	!	!LO:LB:g=original	!	!	!	!	!	!	!	!	!	!	!	!	!	!	!	!	!	!LO:LB:g=original	!	!	!	!LO:LB:g=original
=21	=21	=21	=21	=21	=21	=21	=21	=21	=21	=21	=21	=21	=21	=21	=21	=21	=21	=21	=21	=21	=21	=21	=21	=21	=21	=21	=21	=21	=21
4E\	4b/ 4g#/	.	4E\	.	4g#\	.	4g#/	.	4g#/	4E\	-zów	-cią-	u-	-wiódł	4G#/	-zow	-cią-	u-	-wiódł	4b\	-zow	-cią-	u-	-wiódł	4e/	4b\	.	(4gg#\	4bb\
8E\	8cc#\ 8a\	.	8r	.	8a\	.	8a/	.	8a/	8E\	o-	-gnoć	-lu-	z cie-	8A/	o-	-gnoć	-lu-	z cie-	8cc#\	o-	-gnoć	-lu-	z cie-	8a\	8cc#\	.	8aa\)	8eee\
4E\	4dd\ 4b\	.	4E\	.	4b\	.	4b/	.	4b/	4E\	-swo-	mi-	-bi	-nia	4B/	-swo-	mi-	-bi	-nia	4dd\	-swo-	mi-	-bi	-nia	4b\	4dd\	.	(4bb\	4ddd\
8E\	8ee\ 8b\ 8g#\	.	8r	.	8g#\	.	8g#/	.	8g#/	8E\	-bo-	-ło-	so-	gro-	8G#/	-bo-	-ło-	so-	gro-	8ee\	-bo-	-ło-	so-	gro-	8e/	8b\	.	8gg#\)	8eee\
!LO:LB:g=original	!LO:LB:g=original	!	!	!	!	!	!	!	!LO:LB:g=original	!LO:LB:g=original	!	!	!	!	!LO:LB:g=original	!	!	!	!	!	!	!	!	!	!	!	!	!	!
=22	=22	=22	=22	=22	=22	=22	=22	=22	=22	=22	=22	=22	=22	=22	=22	=22	=22	=22	=22	=22	=22	=22	=22	=22	=22	=22	=22	=22	=22
!	!	!	!	!	!	!	!	!LO:DY:rj	!	!	!	!	!	!	!	!	!	!	!	!	!	!	!	!	!	!	!LO:DY:rj	!	!
4.AA/	4.a/ 4.e/ 4.c#/	.	4.AA/	.	8a\L	.	8a/L 8c#/	pp	(8e/L	4.AA/	-dził.	-sci	-bie	-bu.	4.A/	-dził	-sci	-bie	-bu	4.cc#\	-dził.	-sci	-bie	-bu	8c#/L	8a\L	p	4aa\	8aa\
.	.	.	.	.	8e\ 8c#\	.	8e/ 8c#/	.	8a/)	.	.	.	.	.	.	.	.	.	.	.	.	.	.	.	8c#/	8a\	.	.	(16ddd#X\LL
.	.	.	.	.	.	.	.	.	.	.	.	.	.	.	.	.	.	.	.	.	.	.	.	.	.	.	.	.	16eee\JJ)
.	.	.	.	.	8e\J 8c#\	.	8e/J 8c#/	.	8a/J	.	.	.	.	.	.	.	.	.	.	.	.	.	.	.	8c#/J	8a\J	.	8r	(16ddd#\LL
.	.	.	.	.	.	.	.	.	.	.	.	.	.	.	.	.	.	.	.	.	.	.	.	.	.	.	.	.	16eee\JJ)
4r	4r	.	4AA/	.	8r	.	8r	.	8r	4r	.	.	.	.	4r	.	.	.	.	4r	.	.	.	.	8r	8r	.	4r	8r
.	.	.	.	.	8e\L 8c#\	.	8e/L 8c#/	.	8a/L	.	.	.	.	.	.	.	.	.	.	.	.	.	.	.	8c#/L	8a\L	.	.	(16ddd#\LL
.	.	.	.	.	.	.	.	.	.	.	.	.	.	.	.	.	.	.	.	.	.	.	.	.	.	.	.	.	16eee\JJ)
8r	8r	.	8r	.	8e\J 8c#\	.	8e/J 8c#/	.	8a/J	8r	.	.	.	.	8r	.	.	.	.	8r	.	.	.	.	8c#/J	8a\J	.	8r	(16ddd#\LL
.	.	.	.	.	.	.	.	.	.	.	.	.	.	.	.	.	.	.	.	.	.	.	.	.	.	.	.	.	16eee\JJ)
!	!	!	!	!	!	!	!	!	!	!	!	!	!	!	!	!	!	!	!	!	!	!	!	!	!	!LO:LB:g=original	!	!	!
=23	=23	=23	=23	=23	=23	=23	=23	=23	=23	=23	=23	=23	=23	=23	=23	=23	=23	=23	=23	=23	=23	=23	=23	=23	=23	=23	=23	=23	=23
*^	*	*	*	*	*	*	*	*	*	*	*	*	*	*	*	*	*	*	*	*	*	*	*	*	*	*	*	*	*
!	!	!	!	!	!	!	!	!	!	!	!LO:TX:a:t=8	!	!	!	!	!LO:TX:a:t=8	!	!	!	!	!LO:TX:a:t=8	!	!	!	!	!	!	!	!	!
!	!	!	!	!	!	!	!	!	!	!	!LO:N:vis=00	!	!	!	!	!LO:N:vis=00	!	!	!	!	!LO:N:vis=00	!	!	!	!	!	!	!	!	!
8r	4EE\	2.r	.	4E\	.	8r	.	8r	.	8r	0.r	.	.	.	.	0.r	.	.	.	.	0.r	.	.	.	.	8r	8r	.	(16gg#\LL	8r
.	.	.	.	.	.	.	.	.	.	.	.	.	.	.	.	.	.	.	.	.	.	.	.	.	.	.	.	.	16bb\JJ)	.
!	!	!	!	!	!	!	!	!	!	!	!	!	!	!	!	!	!	!	!	!	!	!	!	!	!	!	!	!	!	!LO:SIC:v:s=16ddd#LL(
8E/L 8D/ 8BB/	.	.	.	.	.	8e/L 8d/	.	8e/L 8d/	.	8b\L	.	.	.	.	.	.	.	.	.	.	.	.	.	.	.	8e/L	8b\L	.	4ee\	(16ddd\LL
.	.	.	.	.	.	.	.	.	.	.	.	.	.	.	.	.	.	.	.	.	.	.	.	.	.	.	.	.	.	16eee\
!	!	!	!	!	!	!	!	!	!	!	!	!	!	!	!	!	!	!	!	!	!	!	!	!	!	!	!	!	!	!LO:SIC:v:s=16ddd#
8E/J 8D/ 8BB/	8ryy	.	.	8r	.	8e/J 8d/	.	8e/J 8d/	.	8b\J	.	.	.	.	.	.	.	.	.	.	.	.	.	.	.	8e/J	8b\J	.	.	16ddd\
.	.	.	.	.	.	.	.	.	.	.	.	.	.	.	.	.	.	.	.	.	.	.	.	.	.	.	.	.	.	16eee\JJ)
*	*	*	*	*	*	*rep	*	*	*	*	*	*	*	*	*	*	*	*	*	*	*	*	*	*	*	*	*	*	*rep	*rep
8r	4EE\	.	.	4E\	.	8r	.	8r	.	8r	.	.	.	.	.	.	.	.	.	.	.	.	.	.	.	8r	8r	.	(16gg#\LL	16r
!	!	!	!	!	!	!	!	!	!	!	!	!	!	!	!	!	!	!	!	!	!	!	!	!	!	!	!	!	!	!LO:SIC:v:s=16ddd#LL
.	.	.	.	.	.	.	.	.	.	.	.	.	.	.	.	.	.	.	.	.	.	.	.	.	.	.	.	.	16bb\JJ)	16ddd\LL
8E/L 8D/ 8BB/	.	.	.	.	.	8e/L 8d/	.	8e/L 8d/	.	8b\L	.	.	.	.	.	.	.	.	.	.	.	.	.	.	.	8e/L	8b\L	.	4ee\	16eee\
!	!	!	!	!	!	!	!	!	!	!	!	!	!	!	!	!	!	!	!	!	!	!	!	!	!	!	!	!	!	!LO:SIC:v:s=16ddd#
.	.	.	.	.	.	.	.	.	.	.	.	.	.	.	.	.	.	.	.	.	.	.	.	.	.	.	.	.	.	16ddd\
8E/J 8D/ 8BB/	8ryy	.	.	8r	.	8e/J 8d/	.	8e/J 8d/	.	8b\J	.	.	.	.	.	.	.	.	.	.	.	.	.	.	.	8e/J	8b\J	.	.	16eee\JJ
.	.	.	.	.	.	.	.	.	.	.	.	.	.	.	.	.	.	.	.	.	.	.	.	.	.	.	.	.	.	16r
*	*	*	*	*	*	*Xrep	*	*	*	*	*	*	*	*	*	*	*	*	*	*	*	*	*	*	*	*	*	*	*Xrep	*Xrep
!!pagebreak:original
=24	=24	=24	=24	=24	=24	=24	=24	=24	=24	=24	=24	=24	=24	=24	=24	=24	=24	=24	=24	=24	=24	=24	=24	=24	=24	=24	=24	=24	=24	=24
*	*	*	*	*	*	*	*	*	*	*	*	*	*	*	*	*	*	*	*	*	*	*	*	*	*	*	*	*	*	*rep
8r	4AA\	2.r	.	4AA/	.	8r	.	8r	.	8r	.	.	.	.	.	.	.	.	.	.	.	.	.	.	.	8r	8r	.	(16aa\LL	8r
.	.	.	.	.	.	.	.	.	.	.	.	.	.	.	.	.	.	.	.	.	.	.	.	.	.	.	.	.	16ccc#X\JJ)	.
!	!	!	!	!	!	!	!	!	!	!	!	!	!	!	!	!	!	!	!	!	!	!	!	!	!	!	!	!	!	!LO:SIC:v:s=16ddd#LL(
8E/L 8C#/ 8AA/	.	.	.	.	.	8e\L 8c#\	.	8e/L 8c#/	.	8a/L	.	.	.	.	.	.	.	.	.	.	.	.	.	.	.	8c#/L	8a\L	.	4ee\	(16ddd\LL
.	.	.	.	.	.	.	.	.	.	.	.	.	.	.	.	.	.	.	.	.	.	.	.	.	.	.	.	.	.	16eee\
!	!	!	!	!	!	!	!	!	!	!	!	!	!	!	!	!	!	!	!	!	!	!	!	!	!	!	!	!	!	!LO:SIC:v:s=16ddd#
8E/J 8C#/ 8AA/	8ryy	.	.	8r	.	8e\J 8c#\	.	8e/J 8c#/	.	8a/J	.	.	.	.	.	.	.	.	.	.	.	.	.	.	.	8c#/J	8a\J	.	.	16ddd\
.	.	.	.	.	.	.	.	.	.	.	.	.	.	.	.	.	.	.	.	.	.	.	.	.	.	.	.	.	.	16eee\JJ)
*	*	*	*	*	*	*rep	*	*	*	*	*	*	*	*	*	*	*	*	*	*	*	*	*	*	*	*	*	*	*rep	*
8r	4AA\	.	.	4A\	.	8r	.	8r	.	8r	.	.	.	.	.	.	.	.	.	.	.	.	.	.	.	8r	8r	.	(16aa\LL	16r
!	!	!	!	!	!	!	!	!	!	!	!	!	!	!	!	!	!	!	!	!	!	!	!	!	!	!	!	!	!	!LO:SIC:v:s=16ddd#LL
.	.	.	.	.	.	.	.	.	.	.	.	.	.	.	.	.	.	.	.	.	.	.	.	.	.	.	.	.	16ccc#\JJ)	16ddd\LL
8E/L 8C#/ 8AA/	.	.	.	.	.	8e\L 8c#\	.	8e/L 8c#/	.	8a/L	.	.	.	.	.	.	.	.	.	.	.	.	.	.	.	8c#/L	8a\L	.	4ee\	16eee\
!	!	!	!	!	!	!	!	!	!	!	!	!	!	!	!	!	!	!	!	!	!	!	!	!	!	!	!	!	!	!LO:SIC:v:s=16ddd#
.	.	.	.	.	.	.	.	.	.	.	.	.	.	.	.	.	.	.	.	.	.	.	.	.	.	.	.	.	.	16ddd\
8E/J 8C#/ 8AA/	8ryy	.	.	8r	.	8e\J 8c#\	.	8e/J 8c#/	.	8a/J	.	.	.	.	.	.	.	.	.	.	.	.	.	.	.	8c#/J	8a\J	.	.	16eee\JJ
.	.	.	.	.	.	.	.	.	.	.	.	.	.	.	.	.	.	.	.	.	.	.	.	.	.	.	.	.	.	16r
*	*	*	*	*	*	*Xrep	*	*	*	*	*	*	*	*	*	*	*	*	*	*	*	*	*	*	*	*	*	*	*Xrep	*Xrep
!	!	!	!	!LO:LB:g=original	!	!	!	!	!	!	!	!	!	!	!	!	!	!	!	!	!	!	!	!	!	!	!	!	!	!
=25	=25	=25	=25	=25	=25	=25	=25	=25	=25	=25	=25	=25	=25	=25	=25	=25	=25	=25	=25	=25	=25	=25	=25	=25	=25	=25	=25	=25	=25	=25
*	*	*	*	*	*	*	*	*	*	*	*	*	*	*	*	*	*	*	*	*	*	*	*	*	*	*	*	*	*	*rep
8r	4EE\	2.r	.	4E\	.	8r	.	8r	.	8r	.	.	.	.	.	.	.	.	.	.	.	.	.	.	.	8r	8r	.	16b\LL	8r
.	.	.	.	.	.	.	.	.	.	.	.	.	.	.	.	.	.	.	.	.	.	.	.	.	.	.	.	.	16dd\JJ	.
!	!	!	!	!	!	!	!	!	!	!	!	!	!	!	!	!	!	!	!	!	!	!	!	!	!	!	!	!	!	!LO:SIC:v:s=16ddd#LL(
8E/L 8BB/ 8GG#X/	.	.	.	.	.	8e\L 8d\	.	8e/L 8d/	.	8b\L	.	.	.	.	.	.	.	.	.	.	.	.	.	.	.	8e/L	8b\L	.	4e/	(16ddd\LL
.	.	.	.	.	.	.	.	.	.	.	.	.	.	.	.	.	.	.	.	.	.	.	.	.	.	.	.	.	.	16eee\
!	!	!	!	!	!	!	!	!	!	!	!	!	!	!	!	!	!	!	!	!	!	!	!	!	!	!	!	!	!	!LO:SIC:v:s=16ddd#
8E/J 8BB/ 8GG#/	8ryy	.	.	8r	.	8e\J 8d\	.	8e/J 8d/	.	8b\J	.	.	.	.	.	.	.	.	.	.	.	.	.	.	.	8e/J	8b\J	.	.	16ddd\
.	.	.	.	.	.	.	.	.	.	.	.	.	.	.	.	.	.	.	.	.	.	.	.	.	.	.	.	.	.	16eee\JJ)
*	*	*	*	*	*	*rep	*	*	*	*	*	*	*	*	*	*	*	*	*	*	*	*	*	*	*	*	*	*	*	*
8r	4EE\	.	.	4E\	.	8r	.	8r	.	8r	.	.	.	.	.	.	.	.	.	.	.	.	.	.	.	8r	8r	.	8b/L	16r
!	!	!	!	!	!	!	!	!	!	!	!	!	!	!	!	!	!	!	!	!	!	!	!	!	!	!	!	!	!	!LO:SIC:v:s=16ddd#LL
.	.	.	.	.	.	.	.	.	.	.	.	.	.	.	.	.	.	.	.	.	.	.	.	.	.	.	.	.	.	16ddd\LL
8E/L 8BB/ 8GG#/	.	.	.	.	.	8e\L 8d\	.	8e/L 8d/	.	8b\L	.	.	.	.	.	.	.	.	.	.	.	.	.	.	.	8e/L	8b\L	.	8e/J	16eee\
!	!	!	!	!	!	!	!	!	!	!	!	!	!	!	!	!	!	!	!	!	!	!	!	!	!	!	!	!	!	!LO:SIC:v:s=16ddd#
.	.	.	.	.	.	.	.	.	.	.	.	.	.	.	.	.	.	.	.	.	.	.	.	.	.	.	.	.	.	16ddd\
8E/J 8BB/ 8GG#/	8ryy	.	.	8r	.	8e\J 8d\	.	8e/J 8d/	.	8b\J	.	.	.	.	.	.	.	.	.	.	.	.	.	.	.	8e/J	8b\J	.	(16dd\LL	16eee\JJ
.	.	.	.	.	.	.	.	.	.	.	.	.	.	.	.	.	.	.	.	.	.	.	.	.	.	.	.	.	16cc#\JJ)	16r
*	*	*	*	*	*	*Xrep	*	*	*	*	*	*	*	*	*	*	*	*	*	*	*	*	*	*	*	*	*	*	*	*Xrep
=26	=26	=26	=26	=26	=26	=26	=26	=26	=26	=26	=26	=26	=26	=26	=26	=26	=26	=26	=26	=26	=26	=26	=26	=26	=26	=26	=26	=26	=26	=26
*	*	*	*	*	*	*	*	*	*	*	*	*	*	*	*	*	*	*	*	*	*	*	*	*	*	*	*	*	*	*rep
8r	4AA\	2.r	.	4AA/	.	8r	.	8r	.	8r	.	.	.	.	.	.	.	.	.	.	.	.	.	.	.	8r	8r	.	4.a/	8r
!	!	!	!	!	!	!	!	!	!	!	!	!	!	!	!	!	!	!	!	!	!	!	!	!	!	!	!	!	!	!LO:SIC:v:s=16ddd#LL(
8E/L 8C#/ 8AA/	.	.	.	.	.	8e\L 8c#\	.	8e/L 8c#/	.	8a/L	.	.	.	.	.	.	.	.	.	.	.	.	.	.	.	8c#/L	8a\L	.	.	(16ddd\LL
.	.	.	.	.	.	.	.	.	.	.	.	.	.	.	.	.	.	.	.	.	.	.	.	.	.	.	.	.	.	16eee\
!	!	!	!	!	!	!	!	!	!	!	!	!	!	!	!	!	!	!	!	!	!	!	!	!	!	!	!	!	!	!LO:SIC:v:s=16ddd#
8E/J 8C#/ 8AA/	8ryy	.	.	8r	.	8e\J 8c#\	.	8e/J 8c#/	.	8a/J	.	.	.	.	.	.	.	.	.	.	.	.	.	.	.	8c#/J	8a\J	.	.	16ddd\
.	.	.	.	.	.	.	.	.	.	.	.	.	.	.	.	.	.	.	.	.	.	.	.	.	.	.	.	.	.	16eee\JJ)
*	*	*	*	*	*	*rep	*	*	*	*	*	*	*	*	*	*	*	*	*	*	*	*	*	*	*	*	*	*	*	*
8r	4AA\	.	.	4AA/	.	8r	.	8r	.	8r	.	.	.	.	.	.	.	.	.	.	.	.	.	.	.	8r	8r	.	4a/	16r
!	!	!	!	!	!	!	!	!	!	!	!	!	!	!	!	!	!	!	!	!	!	!	!	!	!	!	!	!	!	!LO:SIC:v:s=16ddd#LL
.	.	.	.	.	.	.	.	.	.	.	.	.	.	.	.	.	.	.	.	.	.	.	.	.	.	.	.	.	.	16ddd\LL
8E/L 8C#/ 8AA/	.	.	.	.	.	8e\L 8c#\	.	8e/L 8c#/	.	8a/L	.	.	.	.	.	.	.	.	.	.	.	.	.	.	.	8c#/L	8a\L	.	.	16eee\
!	!	!	!	!	!	!	!	!	!	!	!	!	!	!	!	!	!	!	!	!	!	!	!	!	!	!	!	!	!	!LO:SIC:v:s=16ddd#
.	.	.	.	.	.	.	.	.	.	.	.	.	.	.	.	.	.	.	.	.	.	.	.	.	.	.	.	.	.	16ddd\
8E/J 8C#/ 8AA/	8ryy	.	.	8r	.	8e\J 8c#\	.	8e/J 8c#/	.	8a/J	.	.	.	.	.	.	.	.	.	.	.	.	.	.	.	8c#/J	8a\J	.	8r	16eee\JJ
.	.	.	.	.	.	.	.	.	.	.	.	.	.	.	.	.	.	.	.	.	.	.	.	.	.	.	.	.	.	16r
*	*	*	*	*	*	*Xrep	*	*	*	*	*	*	*	*	*	*	*	*	*	*	*	*	*	*	*	*	*	*	*	*Xrep
!	!	!	!	!	!	!	!	!	!	!	!	!	!	!	!	!	!	!	!	!	!	!	!	!	!	!	!	!	!LO:LB:g=original	!LO:LB:g=original
=27	=27	=27	=27	=27	=27	=27	=27	=27	=27	=27	=27	=27	=27	=27	=27	=27	=27	=27	=27	=27	=27	=27	=27	=27	=27	=27	=27	=27	=27	=27
*	*	*	*	*	*	*	*	*	*	*	*	*	*	*	*	*	*	*	*	*	*	*	*	*	*	*	*	*	*	*rep
!	!	!	!	!	!	!	!	!	!	!	!LO:N:vis=00	!	!	!	!	!LO:N:vis=00	!	!	!	!	!LO:N:vis=00	!	!	!	!	!	!	!	!	!
8r	4EE\	2.r	.	4E\	.	8r	.	8r	.	8r	0.r	.	.	.	.	0.r	.	.	.	.	0.r	.	.	.	.	8r	8r	.	16gg#\LL	8r
.	.	.	.	.	.	.	.	.	.	.	.	.	.	.	.	.	.	.	.	.	.	.	.	.	.	.	.	.	16bb\JJ	.
!	!	!	!	!	!	!	!	!	!	!	!	!	!	!	!	!	!	!	!	!	!	!	!	!	!	!	!	!	!	!LO:SIC:v:s=16ddd#LL(
8E/L 8D/ 8BB/	.	.	.	.	.	8e\L 8d\	.	8e/L 8d/	.	8b\L	.	.	.	.	.	.	.	.	.	.	.	.	.	.	.	8e/L	8b\L	.	4ee\	(16ddd\LL
.	.	.	.	.	.	.	.	.	.	.	.	.	.	.	.	.	.	.	.	.	.	.	.	.	.	.	.	.	.	16eee\
!	!	!	!	!	!	!	!	!	!	!	!	!	!	!	!	!	!	!	!	!	!	!	!	!	!	!	!	!	!	!LO:SIC:v:s=16ddd#
8E/J 8D/ 8BB/	8ryy	.	.	8r	.	8e\J 8d\	.	8e/J 8d/	.	8b\J	.	.	.	.	.	.	.	.	.	.	.	.	.	.	.	8e/J	8b\J	.	.	16ddd\
.	.	.	.	.	.	.	.	.	.	.	.	.	.	.	.	.	.	.	.	.	.	.	.	.	.	.	.	.	.	16eee\JJ)
*	*	*	*	*	*	*rep	*	*	*	*	*	*	*	*	*	*	*	*	*	*	*	*	*	*	*	*	*	*	*rep	*
8r	4EE\	.	.	4E\	.	8r	.	8r	.	8r	.	.	.	.	.	.	.	.	.	.	.	.	.	.	.	8r	8r	.	16gg#\LL	16r
!	!	!	!	!	!	!	!	!	!	!	!	!	!	!	!	!	!	!	!	!	!	!	!	!	!	!	!	!	!	!LO:SIC:v:s=16ddd#LL
.	.	.	.	.	.	.	.	.	.	.	.	.	.	.	.	.	.	.	.	.	.	.	.	.	.	.	.	.	16bb\JJ	16ddd\LL
8E/L 8D/ 8BB/	.	.	.	.	.	8e\L 8d\	.	8e/L 8d/	.	8b\L	.	.	.	.	.	.	.	.	.	.	.	.	.	.	.	8e/L	8b\L	.	4ee\	16eee\
!	!	!	!	!	!	!	!	!	!	!	!	!	!	!	!	!	!	!	!	!	!	!	!	!	!	!	!	!	!	!LO:SIC:v:s=16ddd#
.	.	.	.	.	.	.	.	.	.	.	.	.	.	.	.	.	.	.	.	.	.	.	.	.	.	.	.	.	.	16ddd\
8E/J 8D/ 8BB/	8ryy	.	.	8r	.	8e\J 8d\	.	8e/J 8d/	.	8b\J	.	.	.	.	.	.	.	.	.	.	.	.	.	.	.	8e/J	8b\J	.	.	16eee\JJ
.	.	.	.	.	.	.	.	.	.	.	.	.	.	.	.	.	.	.	.	.	.	.	.	.	.	.	.	.	.	16r
*	*	*	*	*	*	*Xrep	*	*	*	*	*	*	*	*	*	*	*	*	*	*	*	*	*	*	*	*	*	*	*Xrep	*Xrep
!	!	!	!	!	!	!LO:LB:g=original	!	!LO:LB:g=original	!	!	!	!	!	!	!	!	!	!	!	!	!	!	!	!	!	!LO:LB:g=original	!	!	!	!
=28	=28	=28	=28	=28	=28	=28	=28	=28	=28	=28	=28	=28	=28	=28	=28	=28	=28	=28	=28	=28	=28	=28	=28	=28	=28	=28	=28	=28	=28	=28
*	*	*	*	*	*	*	*	*	*	*	*	*	*	*	*	*	*	*	*	*	*	*	*	*	*	*	*	*	*	*rep
8r	4AA\	2.r	.	4AA/	.	8r	.	8r	.	8r	.	.	.	.	.	.	.	.	.	.	.	.	.	.	.	8r	8r	.	(16aa\LL	8r
.	.	.	.	.	.	.	.	.	.	.	.	.	.	.	.	.	.	.	.	.	.	.	.	.	.	.	.	.	16ccc#\JJ)	.
!	!	!	!	!	!	!	!	!	!	!	!	!	!	!	!	!	!	!	!	!	!	!	!	!	!	!	!	!	!	!LO:SIC:v:s=16ddd#LL(
8E/L 8C#/ 8AA/	.	.	.	.	.	8e\L 8c#\	.	8e/L 8c#/	.	8a/L	.	.	.	.	.	.	.	.	.	.	.	.	.	.	.	8c#/L	8a\L	.	4ee\	(16ddd\LL
.	.	.	.	.	.	.	.	.	.	.	.	.	.	.	.	.	.	.	.	.	.	.	.	.	.	.	.	.	.	16eee\
!	!	!	!	!	!	!	!	!	!	!	!	!	!	!	!	!	!	!	!	!	!	!	!	!	!	!	!	!	!	!LO:SIC:v:s=16ddd#
8E/J 8C#/ 8AA/	8ryy	.	.	8r	.	8e\J 8c#\	.	8e/J 8c#/	.	8a/J	.	.	.	.	.	.	.	.	.	.	.	.	.	.	.	8c#/J	8a\J	.	.	16ddd\
.	.	.	.	.	.	.	.	.	.	.	.	.	.	.	.	.	.	.	.	.	.	.	.	.	.	.	.	.	.	16eee\JJ)
*	*	*	*	*	*	*rep	*	*	*	*	*	*	*	*	*	*	*	*	*	*	*	*	*	*	*	*	*	*	*rep	*
8r	4AA\	.	.	4A\	.	8r	.	8r	.	8r	.	.	.	.	.	.	.	.	.	.	.	.	.	.	.	8r	8r	.	(16aa\LL	16r
!	!	!	!	!	!	!	!	!	!	!	!	!	!	!	!	!	!	!	!	!	!	!	!	!	!	!	!	!	!	!LO:SIC:v:s=16ddd#LL
.	.	.	.	.	.	.	.	.	.	.	.	.	.	.	.	.	.	.	.	.	.	.	.	.	.	.	.	.	16ccc#\JJ)	16ddd\LL
8E/L 8C#/ 8AA/	.	.	.	.	.	8e\L 8c#\	.	8e/L 8c#/	.	8a/L	.	.	.	.	.	.	.	.	.	.	.	.	.	.	.	8c#/L	8a\L	.	4ee\	16eee\
!	!	!	!	!	!	!	!	!	!	!	!	!	!	!	!	!	!	!	!	!	!	!	!	!	!	!	!	!	!	!LO:SIC:v:s=16ddd#
.	.	.	.	.	.	.	.	.	.	.	.	.	.	.	.	.	.	.	.	.	.	.	.	.	.	.	.	.	.	16ddd\
8E/J 8C#/ 8AA/	8ryy	.	.	8r	.	8e\J 8c#\	.	8e/J 8c#/	.	8a/J	.	.	.	.	.	.	.	.	.	.	.	.	.	.	.	8c#/J	8a\J	.	.	16eee\JJ
.	.	.	.	.	.	.	.	.	.	.	.	.	.	.	.	.	.	.	.	.	.	.	.	.	.	.	.	.	.	16r
*	*	*	*	*	*	*Xrep	*	*	*	*	*	*	*	*	*	*	*	*	*	*	*	*	*	*	*	*	*	*	*Xrep	*Xrep
!	!	!	!	!	!	!	!	!	!	!LO:LB:g=original	!	!	!	!	!	!	!	!	!	!	!	!	!	!	!	!	!	!	!	!
=29	=29	=29	=29	=29	=29	=29	=29	=29	=29	=29	=29	=29	=29	=29	=29	=29	=29	=29	=29	=29	=29	=29	=29	=29	=29	=29	=29	=29	=29	=29
*	*	*	*	*	*	*	*	*	*	*	*	*	*	*	*	*	*	*	*	*	*	*	*	*	*	*	*	*	*	*rep
8r	4EE\	2.r	.	4E\	.	8r	.	8r	.	8r	.	.	.	.	.	.	.	.	.	.	.	.	.	.	.	8r	8r	.	16b\LL	8r
.	.	.	.	.	.	.	.	.	.	.	.	.	.	.	.	.	.	.	.	.	.	.	.	.	.	.	.	.	16dd\JJ	.
!	!	!	!	!	!	!	!	!	!	!	!	!	!	!	!	!	!	!	!	!	!	!	!	!	!	!	!	!	!	!LO:SIC:v:s=16ddd#LL(
8E/L 8BB/ 8GG#/	.	.	.	.	.	8e\L 8d\	.	8e/L 8d/	.	8b\L	.	.	.	.	.	.	.	.	.	.	.	.	.	.	.	8e/L	8b\L	.	8e/L	(16ddd\LL
.	.	.	.	.	.	.	.	.	.	.	.	.	.	.	.	.	.	.	.	.	.	.	.	.	.	.	.	.	.	16eee\
!	!	!	!	!	!	!	!	!	!	!	!	!	!	!	!	!	!	!	!	!	!	!	!	!	!	!	!	!	!	!LO:SIC:v:s=16ddd#
8E/J 8BB/ 8GG#/	8ryy	.	.	8r	.	8e\J 8d\	.	8e/J 8d/	.	8b\J	.	.	.	.	.	.	.	.	.	.	.	.	.	.	.	8e/J	8b\J	.	8e/J	16ddd\
.	.	.	.	.	.	.	.	.	.	.	.	.	.	.	.	.	.	.	.	.	.	.	.	.	.	.	.	.	.	16eee\JJ)
*	*	*	*	*	*	*rep	*	*	*	*	*	*	*	*	*	*	*	*	*	*	*	*	*	*	*	*	*	*	*	*
8r	4EE\	.	.	4E\	.	8r	.	8r	.	8r	.	.	.	.	.	.	.	.	.	.	.	.	.	.	.	8r	8r	.	8b/L	16r
!	!	!	!	!	!	!	!	!	!	!	!	!	!	!	!	!	!	!	!	!	!	!	!	!	!	!	!	!	!	!LO:SIC:v:s=16ddd#LL
.	.	.	.	.	.	.	.	.	.	.	.	.	.	.	.	.	.	.	.	.	.	.	.	.	.	.	.	.	.	16ddd\LL
8E/L 8BB/ 8GG#/	.	.	.	.	.	8e\L 8d\	.	8e/L 8d/	.	8b\L	.	.	.	.	.	.	.	.	.	.	.	.	.	.	.	8e/L	8b\L	.	8e/J	16eee\
!	!	!	!	!	!	!	!	!	!	!	!	!	!	!	!	!	!	!	!	!	!	!	!	!	!	!	!	!	!	!LO:SIC:v:s=16ddd#
.	.	.	.	.	.	.	.	.	.	.	.	.	.	.	.	.	.	.	.	.	.	.	.	.	.	.	.	.	.	16ddd\
8E/J 8BB/ 8GG#/	8ryy	.	.	8r	.	8e\J 8d\	.	8e/J 8d/	.	8b\J	.	.	.	.	.	.	.	.	.	.	.	.	.	.	.	8e/J	8b\J	.	(16dd\LL	16eee\JJ
.	.	.	.	.	.	.	.	.	.	.	.	.	.	.	.	.	.	.	.	.	.	.	.	.	.	.	.	.	16cc#\JJ)	16r
*	*	*	*	*	*	*Xrep	*	*	*	*	*	*	*	*	*	*	*	*	*	*	*	*	*	*	*	*	*	*	*	*Xrep
!LO:PB:g=original	!LO:PB:g=original	!	!	!	!	!	!	!	!	!	!	!	!	!	!	!	!	!	!	!	!	!	!	!	!	!	!LO:LB:g=original	!	!	!
=30	=30	=30	=30	=30	=30	=30	=30	=30	=30	=30	=30	=30	=30	=30	=30	=30	=30	=30	=30	=30	=30	=30	=30	=30	=30	=30	=30	=30	=30	=30
*	*	*	*	*	*	*2\right	*	*	*	*	*	*	*	*	*	*	*	*	*	*	*	*	*	*	*	*	*	*	*	*
8r	4AA\	2.r	.	4.AA/	.	2.e\ 2.c#\	.	2.e/ 2.c#/	.	2.a/	.	.	.	.	.	.	.	.	.	.	.	.	.	.	.	(2.c#/	2.aT\	.	(2.aT/	2.aaT\
8E/L 8C#/ 8AA/	.	.	.	.	.	.	.	.	.	.	.	.	.	.	.	.	.	.	.	.	.	.	.	.	.	.	.	.	.	.
8E/J 8C#/ 8AA/	8ryy	.	.	.	.	.	.	.	.	.	.	.	.	.	.	.	.	.	.	.	.	.	.	.	.	.	.	.	.	.
8r	4AA\	.	.	8A\L	.	.	.	.	.	.	.	.	.	.	.	.	.	.	.	.	.	.	.	.	.	.	.	.	.	.
8E/L 8C#/ 8AA/	.	.	.	8E\	.	.	.	.	.	.	.	.	.	.	.	.	.	.	.	.	.	.	.	.	.	.	.	.	.	.
8E/J 8C#/ 8AA/	8ryy	.	.	8C#\J	.	.	.	.	.	.	.	.	.	.	.	.	.	.	.	.	.	.	.	.	.	.	.	.	.	.
*v	*v	*	*	*	*	*	*	*	*	*	*	*	*	*	*	*	*	*	*	*	*	*	*	*	*	*	*	*	*	*
=31	=31	=31	=31	=31	=31	=31	=31	=31	=31	=31	=31	=31	=31	=31	=31	=31	=31	=31	=31	=31	=31	=31	=31	=31	=31	=31	=31	=31	=31
4.A\ 4.E\ 4.C#\ 4.AA\	4.aa\ 4.ee\ 4.cc#\ 4.a\	.	4.AA/	.	4.e\ 4.c#\	.	4e/ 4c#/	.	4.a/ 4.e/ 4.A/	4r	.	.	.	.	4r	.	.	.	.	4r	.	.	.	.	4a\)	4.cc#\	.	4aa\)	4aaa\
.	.	.	.	.	.	.	8r	.	.	8r	.	.	.	.	8r	.	.	.	.	8r	.	.	.	.	8r	.	.	8r	8r
!	!LO:TX:b:t=Dal Segno 3 razy	!	!LO:TX:b:t=D'al\nSegno 3 razi	!	!	!	!LO:TX:b:t=D'al Segno 3 razi	!	!LO:TX:b:t=D'al Segno 3 razi	!LO:TX:b:t=Dal Segno 3 razy	!	!	!	!	!LO:TX:b:t=Dal Segno 3 razy	!	!	!	!	!LO:TX:b:t=Dal segno 3 razy	!	!	!	!	!LO:TX:b:t=Dal Segno 3 razi	!LO:TX:b:t=Da al Segno 3 razi	!	!LO:TX:b:t=D'al Segno\n3 razi	!LO:TX:b:t=D'al Segno 3 razi
4r	4r	.	4AA/	.	8r	.	4r	.	4r	4r	.	.	.	.	4r	.	.	.	.	4r	.	.	.	.	4r	4r	.	4r	4r
!	!	!	!	!	!LO:TX:b:t=D'al Segno 3 razi	!	!	!	!	!	!	!	!	!	!	!	!	!	!	!	!	!	!	!	!	!	!	!	!
.	.	.	.	.	8r	.	.	.	.	.	.	.	.	.	.	.	.	.	.	.	.	.	.	.	.	.	.	.	.
==	==	==	==	==	==	==	==	==	==	==	==	==	==	==	==	==	==	==	==	==	==	==	==	==	==	==	==	==	==
*-	*-	*-	*-	*-	*-	*-	*-	*-	*-	*-	*-	*-	*-	*-	*-	*-	*-	*-	*-	*-	*-	*-	*-	*-	*-	*-	*-	*-	*-
!!!system-decoration: [(s1,s2)][(s3,s4)][(s5,s6,s7)][(s8,s9,s10,s11)]{s12,s13}
!!!ENC: Andrzej Gręziak
!!!END: 2024-05-01
!!!verovio: condense none
!!!RDF**kern: > = above
!!!RDF**kern: < = below
!!!EED: Andrzej Borzym
!!!EEV: 2025-03-06
